assets/business-color/BusinessColor14.svg

<svg xmlns="http://www.w3.org/2000/svg" id="Layer_1" x="0" y="0" version="1.1" viewBox="0 0 256 256" xml:space="preserve"><style>.st0{fill:#9feaff}.st1{fill:#fff}.st2{fill:#48386a}</style><path d="M238.6 71.2v128.3H22.4V48.7c0-2.8 2.2-5 5-5h206.2c2.8 0 5 2.2 5 5v22.5z" class="st0"/><path d="M219 212.3H9.4c-3.5 0-6.4-2.9-6.4-6.4 0-3.5 2.9-6.4 6.4-6.4h235.3c3.5 0 6.4 2.9 6.4 6.4 0 3.5-2.9 6.4-6.4 6.4H219z" class="st1"/><path d="M244.6 213.3h-18c-.6 0-1-.4-1-1s.4-1 1-1h18c3 0 5.4-2.4 5.4-5.4 0-3-2.4-5.4-5.4-5.4H9.4c-3 0-5.4 2.4-5.4 5.4 0 3 2.4 5.4 5.4 5.4H219c.6 0 1 .4 1 1s-.4 1-1 1H9.4c-4.1 0-7.4-3.3-7.4-7.4 0-4.1 3.3-7.4 7.4-7.4h235.3c4.1 0 7.4 3.3 7.4 7.4-.1 4.1-3.4 7.4-7.5 7.4z" class="st2"/><path d="M99 207.2h-5.9l-5.6-7.6h79l-5.6 7.6h-55.8z" class="st1"/><path d="M160.9 207.7h-55.8c-.3 0-.5-.2-.5-.5s.2-.5.5-.5h55.5l4.9-6.7h-77l4.9 6.7H99c.3 0 .5.2.5.5s-.2.5-.5.5h-5.9c-.2 0-.3-.1-.4-.2l-5.6-7.7c-.1-.2-.1-.4 0-.5.1-.2.3-.3.4-.3h79c.2 0 .4.1.4.3.1.2.1.4 0 .5l-5.6 7.7c-.1.2-.2.2-.4.2z" class="st2"/><path d="M235.1 200.6H18.9c-.6 0-1-.4-1-1V48.7c0-3.3 2.7-6 6-6h206.2c3.3 0 6 2.7 6 6v15.8c0 .6-.4 1-1 1s-1-.4-1-1V48.7c0-2.2-1.8-4-4-4H23.9c-2.2 0-4 1.8-4 4v149.8h214.2V71.2c0-.6.4-1 1-1s1 .4 1 1v128.3c0 .6-.5 1.1-1 1.1z" class="st2"/><path d="M24.5 84.8c-.6 0-1-.4-1-1v-2.3c0-.6.4-1 1-1s1 .4 1 1v2.3c0 .5-.4 1-1 1z" class="st2"/><path d="M24.5 75.5V49.3h205v144.6h-205V88.8z" class="st1"/><path d="M229.5 194.9h-205c-.6 0-1-.4-1-1V88.8c0-.6.4-1 1-1s1 .4 1 1V193h202.9V50.3H25.5v25.2c0 .6-.4 1-1 1s-1-.4-1-1V49.3c0-.6.4-1 1-1h204.9c.6 0 1 .4 1 1v144.6c.1.6-.4 1-.9 1zM127 207.5c-.3 0-.5-.2-.5-.5v-7.5c0-.3.2-.5.5-.5s.5.2.5.5v7.5c0 .3-.2.5-.5.5z" class="st2"/><path d="M181.7 194.9H72.3c-.6 0-1-.4-1-1v-31.7c0-.6.4-1 1-1s1 .4 1 1v30.7h107.4V85.6l-22.1-22.1H73.3V157c0 .6-.4 1-1 1s-1-.4-1-1V62.5c0-.6.4-1 1-1H159c.3 0 .5.1.7.3l22.7 22.7c.2.2.3.4.3.7v108.7c0 .6-.5 1-1 1z" class="st2"/><path d="M181.7 86.2H159c-.6 0-1-.4-1-1V62.5c0-.4.2-.8.6-.9.4-.2.8-.1 1.1.2l22.7 22.7c.3.3.4.7.2 1.1-.1.4-.5.6-.9.6zm-21.7-2h19.3L160 64.9v19.3z" class="st2"/><path d="M104 69.8h12.6v31.8H82.4V69.8h17.1zM81.9 162.2h56.4v11H81.9zM149.1 119.9H82.4v-11h91.4v11h-18.7zM152.3 145.9c2.1-1.2 4.5-1.8 7-1.8 8 0 14.5 6.5 14.5 14.5s-6.5 14.5-14.5 14.5-14.5-6.5-14.5-14.5c0-3.4 1.2-6.6 3.2-9.1l4.3-3.6z" class="st0"/><path d="M113.1 102.1H78.9c-.3 0-.5-.2-.5-.5V69.8c0-.3.2-.5.5-.5H96c.3 0 .5.2.5.5s-.2.5-.5.5H79.4v30.8h33.3V70.3h-12.1c-.3 0-.5-.2-.5-.5s.2-.5.5-.5h12.6c.3 0 .5.2.5.5v31.8c-.1.3-.3.5-.6.5zM170.3 120.4h-18.7c-.3 0-.5-.2-.5-.5s.2-.5.5-.5h18.2v-10H79.4v10h66.3c.3 0 .5.2.5.5s-.2.5-.5.5H78.9c-.3 0-.5-.2-.5-.5v-11c0-.3.2-.5.5-.5h91.5c.3 0 .5.2.5.5v11c-.1.2-.3.5-.6.5zM170.3 137.2H78.9c-.3 0-.5-.2-.5-.5v-11c0-.3.2-.5.5-.5h91.5c.3 0 .5.2.5.5v11c-.1.3-.3.5-.6.5zm-90.9-1h90.5v-10H79.4v10zM135.2 155.6H78.9c-.3 0-.5-.2-.5-.5v-11c0-.3.2-.5.5-.5h56.4c.3 0 .5.2.5.5v11c-.1.2-.3.5-.6.5zm-55.8-1h55.4v-10H79.4v10zM135.2 173.7H78.9c-.3 0-.5-.2-.5-.5v-11c0-.3.2-.5.5-.5h56.4c.3 0 .5.2.5.5v11c-.1.3-.3.5-.6.5zm-55.8-1h55.4v-10H79.4v10zM155.8 173.7c-8.3 0-15-6.7-15-15 0-3.4 1.1-6.7 3.3-9.4.2-.2.5-.3.7-.1.2.2.3.5.1.7-2 2.5-3.1 5.5-3.1 8.8 0 7.7 6.3 14 14 14s14-6.3 14-14-6.3-14-14-14c-2.4 0-4.7.6-6.8 1.8-.2.1-.5 0-.7-.2s0-.5.2-.7c2.2-1.2 4.7-1.9 7.3-1.9 8.3 0 15 6.7 15 15s-6.7 15-15 15z" class="st2"/><g><path d="M150.1 88.2h-32.6c-.3 0-.5-.2-.5-.5s.2-.5.5-.5h32.6c.3 0 .5.2.5.5s-.2.5-.5.5z" class="st2"/></g><g><path d="M164.4 95.1h-46.9c-.3 0-.5-.2-.5-.5s.2-.5.5-.5h46.9c.3 0 .5.2.5.5s-.2.5-.5.5z" class="st2"/></g><g><path d="M169.9 102.1h-52.4c-.3 0-.5-.2-.5-.5s.2-.5.5-.5h52.4c.3 0 .5.2.5.5s-.2.5-.5.5z" class="st2"/></g><g><path d="M93.1 207.7H3c-.3 0-.5-.2-.5-.5s.2-.5.5-.5h90.1c.3 0 .5.2.5.5s-.2.5-.5.5z" class="st2"/></g><g><path d="M250.9 207.7h-90c-.3 0-.5-.2-.5-.5s.2-.5.5-.5h90c.3 0 .5.2.5.5s-.3.5-.5.5z" class="st2"/></g></svg>

<svg xmlns="http://www.w3.org/2000/svg" id="Layer_1" x="0" y="0" enable-background="new 0 0 256 256" version="1.1" viewBox="0 0 256 256" xml:space="preserve"><style>.st0{fill:#9FEAFF;}
	.st1{fill:#FFFFFF;}
	.st2{fill:#48386A;}</style><path d="M238.6 71.2v128.3H22.4V48.7c0-2.8 2.2-5 5-5h206.2c2.8 0 5 2.2 5 5v22.5z" class="st0"/><path d="M219 212.3H9.4c-3.5 0-6.4-2.9-6.4-6.4 0-3.5 2.9-6.4 6.4-6.4h235.3c3.5 0 6.4 2.9 6.4 6.4 0 3.5-2.9 6.4-6.4 6.4H219z" class="st1"/><path d="M244.6 213.3h-18c-.6 0-1-.4-1-1s.4-1 1-1h18c3 0 5.4-2.4 5.4-5.4 0-3-2.4-5.4-5.4-5.4H9.4c-3 0-5.4 2.4-5.4 5.4 0 3 2.4 5.4 5.4 5.4H219c.6 0 1 .4 1 1s-.4 1-1 1H9.4c-4.1 0-7.4-3.3-7.4-7.4 0-4.1 3.3-7.4 7.4-7.4h235.3c4.1 0 7.4 3.3 7.4 7.4-.1 4.1-3.4 7.4-7.5 7.4z" class="st2"/><path d="M99 207.2 93.1 207.2 87.5 199.6 166.5 199.6 160.9 207.2 105.1 207.2z" class="st1"/><path d="M160.9 207.7h-55.8c-.3 0-.5-.2-.5-.5s.2-.5.5-.5h55.5l4.9-6.7h-77l4.9 6.7H99c.3 0 .5.2.5.5s-.2.5-.5.5h-5.9c-.2 0-.3-.1-.4-.2l-5.6-7.7c-.1-.2-.1-.4 0-.5.1-.2.3-.3.4-.3h79c.2 0 .4.1.4.3.1.2.1.4 0 .5l-5.6 7.7c-.1.2-.2.2-.4.2z" class="st2"/><path d="M235.1 200.6H18.9c-.6 0-1-.4-1-1V48.7c0-3.3 2.7-6 6-6h206.2c3.3 0 6 2.7 6 6v15.8c0 .6-.4 1-1 1s-1-.4-1-1V48.7c0-2.2-1.8-4-4-4H23.9c-2.2 0-4 1.8-4 4v149.8h214.2V71.2c0-.6.4-1 1-1s1 .4 1 1v128.3c0 .6-.5 1.1-1 1.1z" class="st2"/><path d="M24.5 84.8c-.6 0-1-.4-1-1v-2.3c0-.6.4-1 1-1s1 .4 1 1v2.3c0 .5-.4 1-1 1z" class="st2"/><path d="M24.5 75.5 24.5 49.3 229.5 49.3 229.5 193.9 24.5 193.9 24.5 88.8z" class="st1"/><path d="M229.5 194.9h-205c-.6 0-1-.4-1-1V88.8c0-.6.4-1 1-1s1 .4 1 1V193h202.9V50.3H25.5v25.2c0 .6-.4 1-1 1s-1-.4-1-1V49.3c0-.6.4-1 1-1h204.9c.6 0 1 .4 1 1v144.6c.1.6-.4 1-.9 1zM127 207.5c-.3 0-.5-.2-.5-.5v-7.5c0-.3.2-.5.5-.5s.5.2.5.5v7.5c0 .3-.2.5-.5.5z" class="st2"/><path d="M181.7 194.9H72.3c-.6 0-1-.4-1-1v-31.7c0-.6.4-1 1-1s1 .4 1 1v30.7h107.4V85.6l-22.1-22.1H73.3V157c0 .6-.4 1-1 1s-1-.4-1-1V62.5c0-.6.4-1 1-1H159c.3 0 .5.1.7.3l22.7 22.7c.2.2.3.4.3.7v108.7c0 .6-.5 1-1 1z" class="st2"/><path d="M181.7 86.2H159c-.6 0-1-.4-1-1V62.5c0-.4.2-.8.6-.9.4-.2.8-.1 1.1.2l22.7 22.7c.3.3.4.7.2 1.1-.1.4-.5.6-.9.6zm-21.7-2h19.3L160 64.9v19.3z" class="st2"/><path d="M104 69.8 116.6 69.8 116.6 101.6 82.4 101.6 82.4 69.8 99.5 69.8z" class="st0"/><path d="M81.9 162.2H138.3V173.2H81.9z" class="st0"/><path d="M149.1 119.9 82.4 119.9 82.4 108.9 173.8 108.9 173.8 119.9 155.1 119.9z" class="st0"/><path d="M152.3 145.9c2.1-1.2 4.5-1.8 7-1.8 8 0 14.5 6.5 14.5 14.5s-6.5 14.5-14.5 14.5-14.5-6.5-14.5-14.5c0-3.4 1.2-6.6 3.2-9.1l4.3-3.6z" class="st0"/><path d="M113.1 102.1H78.9c-.3 0-.5-.2-.5-.5V69.8c0-.3.2-.5.5-.5H96c.3 0 .5.2.5.5s-.2.5-.5.5H79.4v30.8h33.3V70.3h-12.1c-.3 0-.5-.2-.5-.5s.2-.5.5-.5h12.6c.3 0 .5.2.5.5v31.8c-.1.3-.3.5-.6.5zM170.3 120.4h-18.7c-.3 0-.5-.2-.5-.5s.2-.5.5-.5h18.2v-10H79.4v10h66.3c.3 0 .5.2.5.5s-.2.5-.5.5H78.9c-.3 0-.5-.2-.5-.5v-11c0-.3.2-.5.5-.5h91.5c.3 0 .5.2.5.5v11c-.1.2-.3.5-.6.5zM170.3 137.2H78.9c-.3 0-.5-.2-.5-.5v-11c0-.3.2-.5.5-.5h91.5c.3 0 .5.2.5.5v11c-.1.3-.3.5-.6.5zm-90.9-1h90.5v-10H79.4v10zM135.2 155.6H78.9c-.3 0-.5-.2-.5-.5v-11c0-.3.2-.5.5-.5h56.4c.3 0 .5.2.5.5v11c-.1.2-.3.5-.6.5zm-55.8-1h55.4v-10H79.4v10zM135.2 173.7H78.9c-.3 0-.5-.2-.5-.5v-11c0-.3.2-.5.5-.5h56.4c.3 0 .5.2.5.5v11c-.1.3-.3.5-.6.5zm-55.8-1h55.4v-10H79.4v10zM155.8 173.7c-8.3 0-15-6.7-15-15 0-3.4 1.1-6.7 3.3-9.4.2-.2.5-.3.7-.1.2.2.3.5.1.7-2 2.5-3.1 5.5-3.1 8.8 0 7.7 6.3 14 14 14s14-6.3 14-14-6.3-14-14-14c-2.4 0-4.7.6-6.8 1.8-.2.1-.5 0-.7-.2s0-.5.2-.7c2.2-1.2 4.7-1.9 7.3-1.9 8.3 0 15 6.7 15 15s-6.7 15-15 15z" class="st2"/><g><path d="M150.1 88.2h-32.6c-.3 0-.5-.2-.5-.5s.2-.5.5-.5h32.6c.3 0 .5.2.5.5s-.2.5-.5.5z" class="st2"/></g><g><path d="M164.4 95.1h-46.9c-.3 0-.5-.2-.5-.5s.2-.5.5-.5h46.9c.3 0 .5.2.5.5s-.2.5-.5.5z" class="st2"/></g><g><path d="M169.9 102.1h-52.4c-.3 0-.5-.2-.5-.5s.2-.5.5-.5h52.4c.3 0 .5.2.5.5s-.2.5-.5.5z" class="st2"/></g><g><path d="M93.1 207.7H3c-.3 0-.5-.2-.5-.5s.2-.5.5-.5h90.1c.3 0 .5.2.5.5s-.2.5-.5.5z" class="st2"/></g><g><path d="M250.9 207.7h-90c-.3 0-.5-.2-.5-.5s.2-.5.5-.5h90c.3 0 .5.2.5.5s-.3.5-.5.5z" class="st2"/></g></svg>
